packages/nimble-tokens/assets-icons/LegendView_16x16.svg

<svg id="Layer_1" data-name="Layer 1" xmlns="http://www.w3.org/2000/svg" viewBox="0 0 16 16"><path d="M1,1V15H15V1Zm8.48389,9.86279L5.49463,7.87109,3,9.81128V7.46069l2.57031-1.428L9.52,7.02051,13,5.86035v2.072ZM13,9.23438V13H3V11.07776L5.50537,9.12891l4.01074,3.0083ZM9.48,5.97949,5.42969,4.96729,3,6.31714V3H13V4.8064Z" opacity="0.7"/></svg>

<?xml version="1.0" encoding="iso-8859-1"?>
<!-- Generator: Adobe Illustrator 22.1.0, SVG Export Plug-In . SVG Version: 6.00 Build 0)  -->
<svg version="1.1" id="Layer_1" xmlns="http://www.w3.org/2000/svg" xmlns:xlink="http://www.w3.org/1999/xlink" x="0px" y="0px"
	 viewBox="0 0 16 16" style="enable-background:new 0 0 16 16;" xml:space="preserve">
<path style="opacity:0.7;" d="M1,1v14h14V1H1z M9.484,10.863L5.495,7.871L3,9.811V7.461l2.57-1.428l3.95,0.988L13,5.86v2.072
	L9.484,10.863z M13,9.234V13H3v-1.922l2.505-1.949l4.011,3.008L13,9.234z M9.48,5.979L5.43,4.967L3,6.317V3h10v1.806L9.48,5.979z"/>
</svg>
